X:5863
T:Scottisch Génépi (Fanch Marzelle)
O:england
M:4/4
L:1/8
K:G
A2cA E2AE|^F2AF E4|B,CDE DG,B,/D/G|FEDC D4|
A2cA E2AE|^F2AF E4|B,CDE DCB,D|C2B,2 A,4:|
|:c2d2 e2eg|^fedf e3c|FcBc AcA_G|FcBc A4|
c2d2 e2eg|^fedf e3c|FcBc AcA_G|FcBc A2z2:|


